assets/img/viber.svg

<svg width="24" height="24" viewBox="0 0 24 24" fill="none" xmlns="http://www.w3.org/2000/svg">
<path d="M21.5526 6.80827L21.5467 6.78519C21.0642 4.89804 18.8889 2.87304 16.8913 2.45175L16.8688 2.44726C13.6377 1.85091 10.3616 1.85091 7.13123 2.44726L7.10803 2.45175C5.11108 2.87304 2.93584 4.89804 2.45268 6.78519L2.44738 6.80827C1.85087 9.44373 1.85087 12.1164 2.44738 14.7518L2.45268 14.7749C2.91523 16.5815 4.92849 18.5135 6.85154 19.0448V21.1514C6.85154 21.9138 7.8119 22.2883 8.35803 21.7381L10.5641 19.5195C11.0425 19.5454 11.5213 19.5599 12 19.5599C13.6265 19.5599 15.2536 19.4111 16.8688 19.1129L16.8913 19.1084C18.8889 18.6871 21.0642 16.6621 21.5467 14.775L21.5526 14.7519C22.1491 12.1164 22.1491 9.44373 21.5526 6.80827ZM19.8069 14.3697C19.4848 15.6008 17.8331 17.1315 16.5208 17.4142C14.8028 17.7303 13.0712 17.8654 11.3414 17.819C11.307 17.8181 11.2739 17.831 11.2499 17.8549C11.0044 18.0987 9.63918 19.4546 9.63918 19.4546L7.9259 21.1558C7.80064 21.2821 7.58059 21.1962 7.58059 21.0218V17.5321C7.58059 17.4744 7.53804 17.4255 7.47952 17.4144C7.47919 17.4143 7.47886 17.4142 7.47853 17.4142C6.16622 17.1314 4.51524 15.6008 4.19247 14.3696C3.65562 11.9874 3.65562 9.57255 4.19247 7.19038C4.51524 5.95922 6.16622 4.4286 7.47853 4.14582C10.4789 3.59372 13.5211 3.59372 16.5208 4.14582C17.8338 4.4286 19.4848 5.95922 19.8069 7.19038C20.3443 9.57262 20.3443 11.9875 19.8069 14.3697Z" fill="white"/>
<path fill-rule="evenodd" clip-rule="evenodd" d="M3.5 14L6.5 18.5H7V21L7.5 21.5H8L10.5 19L13.5 18.5L18 18L20.5 15V11L21 7L17.5 3.5L13.5 2.5L7 3.5L4.5 4.5L2.5 9.5L3.5 14ZM14.663 15.9275L14.663 15.9275L14.6629 15.9275C14.5307 15.8923 14.4034 15.8583 14.2824 15.8097C12.4322 15.0671 10.7294 14.1089 9.38059 12.6402C8.61355 11.805 8.01321 10.8621 7.50572 9.86418C7.28994 9.43986 7.10458 9.00065 6.91955 8.56221L6.85553 8.41064C6.66704 7.96511 6.94468 7.50483 7.23703 7.16915C7.51135 6.85411 7.86435 6.61301 8.24664 6.43533C8.54502 6.29663 8.83936 6.37659 9.05728 6.62128C9.52838 7.1503 9.96111 7.70637 10.3115 8.31958C10.527 8.69675 10.4679 9.1578 10.0774 9.41448C10.0011 9.46462 9.93027 9.52175 9.85951 9.57883L9.8595 9.57883L9.8595 9.57884L9.85949 9.57884L9.80755 9.62057C9.73 9.68233 9.65703 9.74472 9.60387 9.82833C9.50671 9.98133 9.50207 10.1618 9.56464 10.3281C10.0462 11.6085 10.8579 12.6042 12.19 13.1404L12.247 13.1636C12.4415 13.243 12.6391 13.3237 12.8628 13.2984C13.1289 13.2683 13.2785 13.075 13.4291 12.8805L13.4291 12.8805L13.4291 12.8805L13.4291 12.8805C13.5112 12.7744 13.5936 12.668 13.6953 12.5875C13.977 12.3647 14.337 12.3617 14.6404 12.5475C14.9439 12.7333 15.2381 12.9328 15.5305 13.1344L15.5897 13.1752L15.5897 13.1752L15.5897 13.1752L15.5897 13.1752C15.8568 13.3591 16.1216 13.5414 16.3681 13.7514C16.6227 13.9684 16.7104 14.253 16.567 14.5473C16.3046 15.0865 15.9227 15.535 15.3718 15.8213C15.2654 15.8766 15.1448 15.9063 15.0231 15.9362C14.9669 15.9501 14.9104 15.964 14.855 15.9805C14.79 15.9614 14.7259 15.9443 14.663 15.9275L14.663 15.9275L14.663 15.9275ZM16.839 9.75321C16.413 7.43837 14.4253 5.88447 12.0052 5.81887C11.9916 5.81882 11.978 5.8186 11.9644 5.81839L11.9644 5.81839C11.9311 5.81787 11.8979 5.81735 11.8647 5.81913C11.6931 5.82804 11.541 5.96687 11.5732 6.14122C11.6094 6.33766 11.8135 6.35758 11.9817 6.37399L12.0109 6.37687C12.0959 6.38551 12.1813 6.39264 12.2666 6.39977L12.2666 6.39978L12.2666 6.39978C12.4557 6.41558 12.6448 6.43138 12.8308 6.4635C14.6253 6.77315 16.0628 8.21618 16.3134 9.96039C16.3512 10.224 16.3699 10.4902 16.3885 10.7563L16.3885 10.7563L16.3885 10.7564C16.3933 10.8238 16.398 10.8913 16.403 10.9587C16.4156 11.127 16.5029 11.284 16.6969 11.2818C16.8847 11.2796 16.9833 11.1196 16.9697 10.9512L16.958 10.8032L16.958 10.8032L16.958 10.8031C16.9303 10.4517 16.9026 10.099 16.839 9.75321ZM15.6834 10.4316C15.6824 10.439 15.6815 10.4489 15.6804 10.4607C15.6773 10.4954 15.6728 10.546 15.6596 10.5944C15.5953 10.8294 15.227 10.8589 15.1421 10.6216C15.117 10.5512 15.1132 10.4711 15.1131 10.3953C15.1122 9.89939 15.0008 9.40398 14.7424 8.97249C14.4766 8.52902 14.0707 8.1562 13.5946 7.93062C13.3066 7.79423 12.9953 7.70946 12.6797 7.65893C12.5939 7.6452 12.5074 7.63482 12.421 7.62444C12.3685 7.61814 12.3161 7.61185 12.2638 7.60481C12.0959 7.58224 12.0062 7.47868 12.0142 7.31856C12.0216 7.16851 12.1349 7.0606 12.3039 7.06983C12.8593 7.10035 13.3958 7.21648 13.8896 7.46945C14.8937 7.98391 15.4672 8.79596 15.6346 9.88028C15.6374 9.89787 15.6407 9.91539 15.644 9.93291C15.6499 9.96433 15.6558 9.99572 15.6582 10.0274C15.6649 10.113 15.6698 10.1986 15.6755 10.2977L15.6755 10.2978L15.6834 10.4316ZM13.8461 10.0904C13.867 10.27 13.9754 10.3785 14.1779 10.3749C14.27 10.3689 14.3646 10.307 14.3942 10.1835C14.4109 10.1137 14.404 10.0367 14.3974 9.96347L14.3968 9.95627C14.3011 8.88759 13.6305 8.41828 12.6922 8.35274C12.542 8.34223 12.4084 8.44598 12.3854 8.57891C12.3601 8.72498 12.4491 8.85104 12.61 8.8892C12.6794 8.90566 12.7502 8.91191 12.8211 8.91816C12.9015 8.92526 12.982 8.93236 13.0609 8.95441C13.1779 8.98705 13.2895 9.03764 13.388 9.10709C13.5966 9.25412 13.7284 9.4765 13.7893 9.71645C13.8158 9.82131 13.828 9.92992 13.8402 10.038C13.8421 10.0555 13.8441 10.073 13.8461 10.0904Z" fill="white"/>
</svg>

<svg width="24" height="24" fill="none" xmlns="http://www.w3.org/2000/svg"><path d="M21.553 6.808l-.006-.023c-.483-1.887-2.658-3.912-4.656-4.333l-.022-.005a26.724 26.724 0 00-9.738 0l-.023.005c-1.997.421-4.172 2.446-4.655 4.333l-.006.023a17.854 17.854 0 000 7.944l.006.023c.462 1.806 2.475 3.739 4.399 4.27v2.106c0 .763.96 1.137 1.506.587l2.206-2.218a26.797 26.797 0 006.305-.407l.022-.005c1.998-.42 4.173-2.446 4.656-4.333l.006-.023a17.855 17.855 0 000-7.944zm-1.746 7.562c-.322 1.23-1.974 2.761-3.286 3.044-1.718.316-3.45.451-5.18.405a.125.125 0 00-.091.036l-1.61 1.6-1.714 1.7c-.125.127-.345.041-.345-.133v-3.49a.121.121 0 00-.102-.118c-1.313-.283-2.964-1.813-3.287-3.044a16.202 16.202 0 010-7.18c.323-1.23 1.974-2.76 3.288-3.044 3-.552 6.042-.552 9.042 0 1.313.283 2.964 1.813 3.286 3.044a16.187 16.187 0 010 7.18z" fill="#fff"/><path fill-rule="evenodd" clip-rule="evenodd" d="M3.5 14l3 4.5H7V21l.5.5H8l2.5-2.5 3-.5L18 18l2.5-3v-4l.5-4-3.5-3.5-4-1-6.5 1-2.5 1-2 5 1 4.5zm11.163 1.928a3.285 3.285 0 01-.38-.118c-1.85-.743-3.554-1.701-4.902-3.17-.767-.835-1.368-1.778-1.875-2.776a20.09 20.09 0 01-.586-1.302l-.064-.151c-.189-.446.089-.906.381-1.242a3.007 3.007 0 011.01-.734c.298-.138.592-.058.81.186.471.53.904 1.085 1.255 1.699.215.377.156.838-.235 1.094-.076.05-.147.108-.217.165l-.052.042a.869.869 0 00-.204.207.553.553 0 00-.04.5c.482 1.28 1.294 2.276 2.626 2.812l.057.024c.194.079.392.16.616.134.266-.03.415-.223.566-.418.082-.106.165-.212.266-.293.282-.222.642-.225.945-.04.304.186.598.386.89.587l.06.041c.267.184.532.366.778.576.255.217.342.502.199.796-.262.54-.644.988-1.195 1.274a1.56 1.56 0 01-.349.115c-.056.014-.113.028-.168.044-.065-.019-.13-.036-.192-.053zm2.176-6.175c-.426-2.315-2.414-3.869-4.834-3.934h-.04c-.034-.001-.067-.002-.1 0-.172.009-.324.148-.292.322.036.197.24.217.409.233l.029.003c.085.009.17.016.256.023.189.016.378.031.564.063 1.794.31 3.232 1.753 3.482 3.497.038.264.057.53.076.796l.014.203c.013.168.1.325.294.323.188-.002.286-.162.273-.33l-.012-.149c-.028-.351-.055-.704-.119-1.05zm-1.156.679l-.003.029c-.003.034-.007.085-.02.133-.065.235-.433.265-.518.028a.686.686 0 01-.029-.227 2.76 2.76 0 00-.37-1.423 2.703 2.703 0 00-1.148-1.041 3.384 3.384 0 00-.915-.272c-.086-.014-.173-.024-.259-.035a11.021 11.021 0 01-.157-.02c-.168-.022-.258-.125-.25-.285.008-.15.12-.258.29-.25.555.031 1.092.147 1.586.4 1.004.515 1.577 1.327 1.745 2.411.002.018.006.035.009.053a.762.762 0 01.014.094c.007.086.012.172.018.27l.007.135zm-1.837-.342c.021.18.13.289.332.285a.238.238 0 00.216-.191.696.696 0 00.003-.22v-.008c-.096-1.068-.767-1.538-1.705-1.603-.15-.01-.284.093-.307.226-.025.146.064.272.225.31.07.017.14.023.211.03.08.006.161.013.24.035.117.033.229.084.327.153.209.147.34.37.401.61.027.104.039.213.051.321l.006.052z" fill="#fff"/></svg>
